src/assets/media/icon_stair.svg

<svg width="16" height="16" viewBox="0 0 16 16" fill="none" xmlns="http://www.w3.org/2000/svg">
    <path d="M2.82498 13.1746H6.35745V10.1821H8.67495V7.18958H10.9925V4.17458H13.175V2.82462H9.6425V5.81712H7.325V8.80963H5.00749V11.8246H2.82498V13.1746ZM1.97691 15.6496C1.52229 15.6496 1.13748 15.4921 0.822477 15.1771C0.507476 14.8621 0.349976 14.4773 0.349976 14.0227V1.97654C0.349976 1.52192 0.507476 1.13711 0.822477 0.822111C1.13748 0.50711 1.52229 0.349609 1.97691 0.349609H14.023C14.4777 0.349609 14.8625 0.50711 15.1775 0.822111C15.4925 1.13711 15.65 1.52192 15.65 1.97654V14.0227C15.65 14.4773 15.4925 14.8621 15.1775 15.1771C14.8625 15.4921 14.4777 15.6496 14.023 15.6496H1.97691ZM1.97691 14.2996H14.023C14.0923 14.2996 14.1558 14.2708 14.2135 14.2131C14.2711 14.1554 14.3 14.0919 14.3 14.0227V1.97654C14.3 1.9073 14.2711 1.84383 14.2135 1.78613C14.1558 1.72844 14.0923 1.69959 14.023 1.69959H1.97691C1.90767 1.69959 1.8442 1.72844 1.78649 1.78613C1.7288 1.84383 1.69996 1.9073 1.69996 1.97654V14.0227C1.69996 14.0919 1.7288 14.1554 1.78649 14.2131C1.8442 14.2708 1.90767 14.2996 1.97691 14.2996Z"
          fill="#667085"/>
</svg>

<svg width="16" height="16" fill="none" xmlns="http://www.w3.org/2000/svg">
    <path d="M2.825 13.175h3.532v-2.993h2.318V7.19h2.317V4.175h2.183v-1.35H9.642v2.992H7.325V8.81H5.007v3.015H2.825v1.35zm-.848 2.475a1.57 1.57 0 0 1-1.155-.473 1.57 1.57 0 0 1-.472-1.154V1.977c0-.455.157-.84.472-1.155A1.57 1.57 0 0 1 1.977.35h12.046c.455 0 .84.157 1.155.472.314.315.472.7.472 1.155v12.046c0 .454-.158.84-.473 1.154a1.57 1.57 0 0 1-1.154.473H1.977zm0-1.35h12.046c.07 0 .133-.03.19-.087a.265.265 0 0 0 .087-.19V1.977a.265.265 0 0 0-.087-.19.265.265 0 0 0-.19-.087H1.977a.265.265 0 0 0-.19.086.265.265 0 0 0-.087.19v12.047c0 .069.029.132.086.19a.265.265 0 0 0 .19.087z"
          fill="#667085"/>
</svg>
